img/icon-resume.svg

<svg fill="none" height="24" viewBox="0 0 24 24" width="24" xmlns="http://www.w3.org/2000/svg"><path d="m1.25 12c0-5.93421 4.81579-10.75 10.75-10.75.4142 0 .75.33579.75.75s-.3358.75-.75.75c-5.10579 0-9.25 4.14421-9.25 9.25 0 5.1058 4.14421 9.25 9.25 9.25 5.1058 0 9.25-4.1442 9.25-9.25 0-.4142.3358-.75.75-.75s.75.3358.75.75c0 5.9342-4.8158 10.75-10.75 10.75-5.93421 0-10.75-4.8158-10.75-10.75zm20-5.16992v-3.01953l-7.7197 7.71975c-.2929.2929-.7677.2929-1.0606 0s-.2929-.7677 0-1.0606l7.7198-7.7197h-3.0196c-.4142-.00004-.75-.33581-.75-.75s.3358-.74996.75-.75h4.8301c.4142 0 .75.33579.75.75v4.83008c0 .41418-.3358.75-.75.75s-.75-.33582-.75-.75z" fill="#000"/></svg>

<svg width="24" height="24" viewBox="0 0 24 24" fill="none" xmlns="http://www.w3.org/2000/svg">
<path d="M1.25 12C1.25 6.06579 6.06579 1.25 12 1.25C12.4142 1.25 12.75 1.58579 12.75 2C12.75 2.41421 12.4142 2.75 12 2.75C6.89421 2.75 2.75 6.89421 2.75 12C2.75 17.1058 6.89421 21.25 12 21.25C17.1058 21.25 21.25 17.1058 21.25 12C21.25 11.5858 21.5858 11.25 22 11.25C22.4142 11.25 22.75 11.5858 22.75 12C22.75 17.9342 17.9342 22.75 12 22.75C6.06579 22.75 1.25 17.9342 1.25 12ZM21.25 6.83008V3.81055L13.5303 11.5303C13.2374 11.8232 12.7626 11.8232 12.4697 11.5303C12.1768 11.2374 12.1768 10.7626 12.4697 10.4697L20.1895 2.75H17.1699C16.7557 2.74996 16.4199 2.41419 16.4199 2C16.4199 1.58581 16.7557 1.25004 17.1699 1.25H22C22.4142 1.25 22.75 1.58579 22.75 2V6.83008C22.75 7.24426 22.4142 7.58008 22 7.58008C21.5858 7.58008 21.25 7.24426 21.25 6.83008Z" fill="black"/>
</svg>
